public/svg/layout/l-github.svg

<?xml version="1.0" encoding="UTF-8" standalone="no"?>
<svg width="17px" height="17px" viewBox="0 0 17 17" version="1.1" xmlns="http://www.w3.org/2000/svg" xmlns:xlink="http://www.w3.org/1999/xlink">
    <defs></defs>
    <g stroke="none" stroke-width="1" fill="none" fill-rule="evenodd">
        <g transform="translate(-931.000000, -1142.000000)" fill="#909090">
            <g transform="translate(-3.000000, -1.000000)">
                <g transform="translate(933.000000, 678.000000)">
                    <g transform="translate(1.000000, 465.000000)">
                        <path d="M8.5,0 C3.825,0 0,3.90638298 0,8.68085106 C0,12.3702128 2.26666667,15.5170213 5.41875,16.7829787 C5.7375,16.7106383 6.02083333,16.4212766 6.02083333,16.0595745 L6.02083333,14.4680851 L5.1,14.4680851 C4.42708333,14.4680851 3.86041667,14.1425532 3.57708333,13.6361702 C3.50625,13.4914894 3.43541667,13.3106383 3.36458333,13.1297872 C3.22291667,12.7319149 3.04583333,12.2978723 2.69166667,12.0446809 C2.55,11.9361702 2.47916667,11.7191489 2.51458333,11.5382979 C2.58541667,11.3574468 2.7625,11.212766 3.08125,11.2489362 C3.43541667,11.2851064 3.96666667,11.6829787 4.28541667,12.1170213 C4.56875,12.4787234 4.78125,12.6957447 5.20625,12.6957447 L5.3125,12.6957447 C5.63125,12.6957447 6.41041667,12.6957447 6.55208333,12.5510638 L6.55208333,12.5510638 C6.65833333,12.406383 6.72916667,12.2978723 6.83541667,12.1893617 C4.71041667,11.7553191 3.50625,10.4893617 3.50625,8.57234043 C3.50625,7.9212766 3.68333333,7.27021277 4.07291667,6.69148936 C3.93125,6.14893617 3.6125,4.73829787 4.28541667,4.12340426 L4.39166667,4.01489362 L4.53333333,4.01489362 C5.45416667,4.01489362 6.12708333,4.41276596 6.55208333,4.73829787 C7.79166667,4.26808511 9.20833333,4.26808511 10.4479167,4.73829787 C10.8375,4.41276596 11.5104167,4.01489362 12.4666667,4.01489362 L12.6083333,4.01489362 L12.7145833,4.12340426 C13.3875,4.77446809 13.06875,6.14893617 12.9270833,6.69148936 C13.28125,7.27021277 13.49375,7.9212766 13.49375,8.57234043 C13.49375,10.4893617 12.2895833,11.7553191 10.2,12.1893617 C10.73125,12.7680851 11.0145833,13.6361702 11.0145833,14.3234043 L11.0145833,16.0957447 C11.0145833,16.4574468 11.2625,16.7468085 11.6166667,16.8191489 C14.7333333,15.5170213 17,12.3702128 17,8.68085106 C17,3.90638298 13.175,0 8.5,0 L8.5,0 Z" id="Shape"></path>
                    </g>
                </g>
            </g>
        </g>
    </g>
</svg>

<svg width="17" height="17" viewBox="0 0 17 17" xmlns="http://www.w3.org/2000/svg"><path d="M8.5 0C3.825 0 0 3.906 0 8.68c0 3.69 2.267 6.837 5.42 8.103.317-.072.6-.362.6-.723v-1.592H5.1c-.673 0-1.24-.325-1.523-.832-.07-.145-.142-.325-.212-.506-.142-.398-.32-.832-.673-1.085-.142-.11-.213-.326-.177-.507.07-.18.248-.325.566-.29.355.037.887.435 1.205.87.284.36.496.578.92.578h.107c.32 0 1.098 0 1.24-.145.106-.144.177-.252.283-.36-2.125-.435-3.33-1.7-3.33-3.618 0-.65.178-1.302.568-1.88-.142-.543-.46-1.954.212-2.57l.107-.107h.14c.922 0 1.595.398 2.02.723 1.24-.47 2.656-.47 3.896 0 .39-.325 1.062-.723 2.02-.723h.14l.107.108c.672.65.354 2.026.212 2.568.354.58.567 1.23.567 1.882 0 1.917-1.204 3.183-3.294 3.617.53.578.815 1.446.815 2.133v1.773c0 .36.247.65.602.723C14.733 15.516 17 12.37 17 8.68 17 3.907 13.175 0 8.5 0z" fill="#909090" fill-rule="evenodd"/></svg>
